optimized/24/outline/text-area.svg

<svg viewBox="0 0 24 24" xmlns="http://www.w3.org/2000/svg" fill="currentColor" data-slot="icon">
  <g clip-path="url(#clip0_2117_12140)">
    <path d="M7.75 11C7.75 10.5858 8.08579 10.25 8.5 10.25H11.5C11.9142 10.25 12.25 10.5858 12.25 11C12.25 11.4142 11.9142 11.75 11.5 11.75H8.5C8.08579 11.75 7.75 11.4142 7.75 11Z"/>
    <path d="M7.75 15C7.75 14.5858 8.08579 14.25 8.5 14.25H15.5C15.9142 14.25 16.25 14.5858 16.25 15C16.25 15.4142 15.9142 15.75 15.5 15.75H8.5C8.08579 15.75 7.75 15.4142 7.75 15Z"/>
    <path d="M21.5 12C21.5 17.2467 17.2467 21.5 12 21.5H5.4998C3.84296 21.5 2.50007 20.1572 2.50005 18.5003L2.5 12C2.5 6.75329 6.75329 2.5 12 2.5C17.2467 2.5 21.5 6.75329 21.5 12ZM20 12C20 7.58172 16.4183 4 12 4C7.58172 4 4 7.58172 4 12L4.00005 18.5003C4.00006 19.3287 4.67134 20 5.4998 20H12C16.4183 20 20 16.4183 20 12Z"/>
  </g>
  <defs>
    <clipPath id="clip0_2117_12140">
      <rect width="24" height="24"/>
    </clipPath>
  </defs>
</svg>

<svg xmlns="http://www.w3.org/2000/svg" viewBox="0 0 24 24" fill="currentColor" data-slot="icon">
  <g clip-path="url(#a)">
    <path d="M7.75 11a.75.75 0 0 1 .75-.75h3a.75.75 0 0 1 0 1.5h-3a.75.75 0 0 1-.75-.75Z"/>
    <path d="M7.75 15a.75.75 0 0 1 .75-.75h7a.75.75 0 0 1 0 1.5h-7a.75.75 0 0 1-.75-.75Z"/>
    <path d="M21.5 12a9.5 9.5 0 0 1-9.5 9.5H5.5a3 3 0 0 1-3-3V12a9.5 9.5 0 1 1 19 0ZM20 12a8 8 0 1 0-16 0v6.5A1.5 1.5 0 0 0 5.5 20H12a8 8 0 0 0 8-8Z"/>
  </g>
  <defs>
    <clipPath id="a">
      <rect width="24" height="24"/>
    </clipPath>
  </defs>
</svg>
